X: 172
T: A Farruquiña
R: polka
M: 2/4
K: Dmajor
|:dc|BcBAGdcB|ABAGF2BA|GAGFEFGE|B2A2A2dc|
BcBAGdcB|ABAGF2BA|GAGFEGFE|D2D2D4:|

